X:1
T:Bethesda Is Open
T:William Howard Doane
T:Bethesda Is Open
T:Public Domain
T:Public Domain
C:William Howard Doane
Z:Public Domain
%%score 1 ( 2 3 )
L:1/8
M:6/8
K:Bb
V:1 treble 
V:2 bass 
V:3 bass 
V:1
 [DF] | [FB]>[Fc][FB] [Fd][Fc][FB] | [Ec][EB][EG] [DF]2 [DF] | [DB]>[FB][FB] [Fd][Fd][Fd] | %4
w: 1.~Be-|thes- da is o- pen, the|an- gel has come, The|Spir- it is call- ing for|
w: 2.~Come|press to the wa- ters while|mer- cy is here, Ac-|cept of a cleans- ing com-|
w: 3.~The|house of Be- thes- da for|sin- ners was built, The|pool is a fount- ain of|
w: 4.~Then|come to the fount- ain, ye|need- y and lost, Come|now while the Sav- ior is|
 [Fc]3- [Fc]2 [Fc] | [Fd]>[Ec][DB] [DB][EA][FB] | [Ec][EB][EG] [Ge]2 [Ge] | %7
w: thee; * The|wa- ters are trou- bled, be-|hold, there is room; Sal-|
w: plete; * O,|hear the en- treat- y, dis-|miss- ing your fear; Lo,|
w: love; * The|wa- ters are trou- bled for|can- cel- ing guilt, And|
w: nigh; * This|grace has been pur- chased at|in- fin- ite cost, And|
 [Fd]>[Fc][FB] [Fc][EG][EA] | [DB]3- [DB]2 ||"^Refrain" [DB] | [Fc]>[Fc][Fc] [Fc]2 [Fc] | %11
w: va- tion through Je- sus is|free. *|||
w: judg- ment and mer- cy now|meet. *|Sal-|va- tion is free, sal-|
w: still for our heal- ing they|move. *|||
w: they that re- ject it must|die. *|||
 [Fd]>[Fd][Fd] [Fd]2 [Fd] | [Ge]>[Fd][Fc] [FB][FA][FB] | [Fc]3- [Fc]2 [Fc] | %14
w: |||
w: va- tion is free, Sal-|va- tion through Je- sus is|free; * The|
w: |||
w: |||
 [Fd]>[Ec][DB] [DB][EA][FB] | [Ec][EB][EG] [Ge]2 [Ge] | [Fd]>[Fc][FB] [Fc][EG][EA] | %17
w: |||
w: wa- ters are trou- bled, be-|hold, there is room, Be-|thes- da is o- pen for|
w: |||
w: |||
 [DB]3- [DB]2 |] %18
w: |
w: thee. *|
w: |
w: |
V:2
 [B,,B,] | [B,,D]>[B,,E][B,,D] [B,,B,][C,A,][D,B,] | [E,G,][E,G,][E,B,] [B,,B,]2 [B,,B,] | %3
 [B,,B,]>[D,B,][F,B,] B,B,B, | [F,A,]3- [F,A,]2 [F,A,] | %5
 [B,,B,]>[B,,B,][B,,B,] [B,,B,][C,F,][D,B,] | [E,G,][E,G,][E,B,] [E,B,]2 [C,C] | %7
 [F,B,]>[F,E][F,D] [F,E][F,C]F, | [B,,F,]3- [B,,F,]2 || [B,,B,] | %10
 [F,A,]>[F,A,][F,A,] [F,A,]2 [F,A,] | B,>B,B, B,2 B, | B,>B,[F,A,] [D,B,][C,E](D/B,/) | %13
 [F,A,]3- [F,A,]2 [F,A,] | [B,,B,]>[B,,B,][B,,B,] [B,,B,][C,F,][D,B,] | %15
 [E,G,][E,G,][E,B,] [E,B,]2 [C,C] | [F,B,]>[F,E][F,D] [F,E][F,C]F, | [B,,F,]3- [B,,F,]2 |] %18
V:3
 x | x6 | x6 | x3 B,B,B, | x6 | x6 | x6 | x5 F, | x5 || x | x6 | B,>B,B, B,2 B, | %12
 B,>B, x5/2 B,, x/ | x6 | x6 | x6 | x5 F, | x5 |] %18

